X: 535
T: Dağlar ile Taşlar ile
C: Kutbî Dede
O: Turkey
F: http://compmusic.upf.edu/node/140
N: hicaz--ilahi--sofyan--daglar_ile--kutbi_dede
N: makam= hicaz
N: form= ilahi
N: usul= sofyan = 4/4
M: 4/4
L: 1/16
K: C _7/8B ^f ^c 
Q: 1/4=66
%%MIDI tuningsystem comma53
A4 d4 eddc d4  | c2d2 e2=f2 eddc d4  | \
w:  Dağ lar_ i *  *  *  le   |  taş *  lar_ *  i *  *  *  le   | 
A4 d4 eddc d4  | 
w:  Ça ğı ra *  *  *  yım   | 
z2g2 =f2e2 d3c =B2c2  | d6e8-e2  | A4 d4 eddc d4  | \
w:  Mev *  *  lâm  *  *  se  |  ni    |  Dağ lar_ i *  *  *  le   | 
c2d2 e2=f2 eddc d4  | 
w:  taş *  lar_ *  i *  *  *  le   | 
A4 d4 eddc d4  | z2g2 =f2e2 d3c =B2c2  | \
w:  Ça ğı ra *  *  *  yım   |  Mev *  *  lâm  *  *  se  | 
d6e8-e2  | e3d c4 d3c B4  | 
w:  ni    |  Se *  her ler *  de   | 
c3B A2d2 dcBA G4  | z2G2 F2G2 A4 B3A  | \
w:  kuş *  lar_ *  i *  *  *  le   |  Ça *  ğı ra yım   | 
z2e2 d2c2 c3B BcBA  | 
w:  Mev *  *  lâm  *  *  *  se  | 
A2c4BA A8  | e3d c4 d3c B4  | c3B A2d2 dcBA G4  | \
w:  ni    |  Se *  her ler *  de   |  kuş *  lar_ *  i *  *  *  le   | 
z2G2 F2G2 A4 B3A  | 
w:  Ça *  ğı ra yım   | 
z2e2 d2c2 c3B BcBA  | A2c4BA A8  | A4 d4 eddc d4  | 
w:  Mev *  *  lâm  *  *  *  se  |  ni    |  Dağ lar_ i *  *  *  le   | 
c2d2 e2=f2 eddc d4  | A4 d4 eddc d4  | \
w:  taş *  lar_ *  i *  *  *  le   |  Ça ğı ra *  *  *  yım   | 
z2g2 =f2e2 d3c =B2c2  | 
w:  Mev *  *  lâm  *  *  se  | 
d6e8-e2  | A4 d4 eddc d4  | c2d2 e2=f2 eddc d4  | \
w:  ni    |  Dağ lar_ i *  *  *  le   |  taş *  lar_ *  i *  *  *  le   | 
A4 d4 eddc d4  | 
w:  Ça ğı ra *  *  *  yım   | 
z2g2 =f2e2 d3c =B2c2  | d6e8-e2  | e3d c4 d3c B4  | \
w:  Mev *  *  lâm  *  *  se  |  ni    |  Se *  her ler *  de   | 
c3B A2d2 dcBA G4  | 
w:  kuş *  lar_ *  i *  *  *  le   | 
z2G2 F2G2 A4 B3A  | z2e2 d2c2 c3B BcBA  | \
w:  Ça *  ğı ra yım   |  Mev *  *  lâm  *  *  *  se  | 
A2c4BA A8  | 
w:  ni    | 
e3d c4 d3c B4  | c3B A2d2 dcBA G4  | \
w:  Se *  her ler *  de   |  kuş *  lar_ *  i *  *  *  le   | 
z2G2 F2G2 A4 B3A  | 
w:  Ça *  ğı ra yım   | 
z2e2 d2c2 c3B BcBA  | A2c4BA A8  | |


